material/.icons/material/link-variant-off.svg

<svg xmlns="http://www.w3.org/2000/svg" viewBox="0 0 24 24"><path d="M2 5.27L3.28 4 20 20.72 18.73 22l-4.83-4.83-2.61 2.61a5.003 5.003 0 01-7.07 0 5.003 5.003 0 010-7.07l1.49-1.49c-.01.82.12 1.64.4 2.43l-.47.47a2.982 2.982 0 000 4.24 2.982 2.982 0 004.24 0l2.62-2.6-1.62-1.61c-.01.24-.11.49-.29.68-.39.39-1.03.39-1.42 0A4.973 4.973 0 017.72 11L2 5.27m10.71-1.05a5.003 5.003 0 017.07 0 5.003 5.003 0 010 7.07l-1.49 1.49c.01-.82-.12-1.64-.4-2.42l.47-.48a2.982 2.982 0 000-4.24 2.982 2.982 0 00-4.24 0l-3.33 3.33-1.41-1.42 3.33-3.33m.7 4.95c.39-.39 1.03-.39 1.42 0a4.999 4.999 0 011.23 5.06l-1.78-1.77c-.05-.68-.34-1.35-.87-1.87a.973.973 0 010-1.42z"/></svg>

<?xml version="1.0" encoding="UTF-8"?><!DOCTYPE svg PUBLIC "-//W3C//DTD SVG 1.1//EN" "http://www.w3.org/Graphics/SVG/1.1/DTD/svg11.dtd"><svg xmlns="http://www.w3.org/2000/svg" xmlns:xlink="http://www.w3.org/1999/xlink" version="1.1" id="mdi-link-variant-off" width="24" height="24" viewBox="0 0 24 24"><path d="M2,5.27L3.28,4L20,20.72L18.73,22L13.9,17.17L11.29,19.78C9.34,21.73 6.17,21.73 4.22,19.78C2.27,17.83 2.27,14.66 4.22,12.71L5.71,11.22C5.7,12.04 5.83,12.86 6.11,13.65L5.64,14.12C4.46,15.29 4.46,17.19 5.64,18.36C6.81,19.54 8.71,19.54 9.88,18.36L12.5,15.76L10.88,14.15C10.87,14.39 10.77,14.64 10.59,14.83C10.2,15.22 9.56,15.22 9.17,14.83C8.12,13.77 7.63,12.37 7.72,11L2,5.27M12.71,4.22C14.66,2.27 17.83,2.27 19.78,4.22C21.73,6.17 21.73,9.34 19.78,11.29L18.29,12.78C18.3,11.96 18.17,11.14 17.89,10.36L18.36,9.88C19.54,8.71 19.54,6.81 18.36,5.64C17.19,4.46 15.29,4.46 14.12,5.64L10.79,8.97L9.38,7.55L12.71,4.22M13.41,9.17C13.8,8.78 14.44,8.78 14.83,9.17C16.2,10.54 16.61,12.5 16.06,14.23L14.28,12.46C14.23,11.78 13.94,11.11 13.41,10.59C13,10.2 13,9.56 13.41,9.17Z" /></svg>
